icon-themes/sifr_svg/cmd/lc_flowchartshapes.flowchart-card.svg

<svg viewBox="0 0 24 24" xmlns="http://www.w3.org/2000/svg"><g fill="#555753"><path d="m3 9.592257v11.407743h18v-18h-10.568545z" opacity=".35"/><path d="m10.064453 2-8.064453 7.128906v.462891 12.408203h20v-20zm.732422 2h9.203125v16h-16v-9.943359z"/></g></svg>

<svg xmlns="http://www.w3.org/2000/svg" viewBox="0 0 24 24">
  <path
     style="opacity:0.35;fill:#555753"
     d="M 3,9.592257 V 21 H 21 V 3 H 10.431455 Z"
     />
  <path
     style="fill:#555753"
     d="M 10.064453,2 2,9.128906 V 9.591797 22 H 22 V 2 Z m 0.732422,2 H 20 V 20 H 4 v -9.943359 z"
     />
</svg>
